X: 31677
T: Parting Glass, The
R: barndance
M: 4/4
K: Eminor
|:BA|G4 EE D2|DEG2 GA2A|1 GAB2 c>B A2|
GAB2E2D2:|2 GAB2 e/>ed/ B2|GAB2 DD3||
d>B ed2d|d>B ed3|GAB3cB2|GAB2BA3||
BA|G4 EE D2|DEG2 GA2A|GAB2 e/>ed/ B2|GAB2 DD3||

